X: 149
T:Craig's Pipes
M:4/4
L:1/8
R:reel
Z:Barney
K:G
DB (3BBB BAGA|~B2 GB AGEG|DB (3BBB  BAGB|AGBG AGEG:||
DG~G2 DGBG|DGBG AGEG|DG (3GGG GABc|1 dB Ac BGGE:|2 dBAc BGGA||
d2 (3Bcd egge|(3ddd BG AGEG|d2 (3Bcd egge|1 a2 ab ageg:|2 a2 ab agez1||
DB (3BBB BAGA|~B2 GB AGEG|DB (3BBB  BAGB|AGBG AGEG:|| 
DG~G2 DGBG|DGBG AGEG|DG (3GGG GABc|1 dB Ac BGGB:|2 dB Ac BGGA||
d2 (3Bcd egge|(3ddd BG AGEG|d2 (3Bcd egge|1 a2 ab ageg:|2 a2 ab ag e2z1 g4||
